X: 1
T: Pinnin polska
O: trad. Finland
Z: 2013 John Chambers <jc:trillian.mit.edu>
M: 3/4
L: 1/16
K: D
"A"|:\
A2d2 d2eg f2ed | "A"c2A2 Acec Acec | "G"B3B d2c2 B2A2 \
|1,3 "A"B2A2 A2B2 c2A2 :|2,4 "A"BABc A4 A4 :|
"B"|:\
"D"A2a2 afdf afdf | "A7"g2g2 gece gece | "Em"g2ba gagf efed \
|1,3 "A7"c2d2 e2ge dcBA :|2,4 "A"c2Ac e4 "D"d4 :|

%%sep 1 1 500

